src/gui/emoticons/coffee.svg

<svg xmlns="http://www.w3.org/2000/svg" xmlns:xlink="http://www.w3.org/1999/xlink" width="16pt" height="16pt" version="1.1" viewBox="0 0 16 16"><defs><radialGradient id="radial0" cx="63.138" cy="96.922" r="57.66" fx="63.138" fy="96.922" gradientTransform="matrix(0.126825,0,0,0.0669875,-0.0072875,5.039)" gradientUnits="userSpaceOnUse"><stop offset="0" style="stop-color:#fff;stop-opacity:1"/><stop offset="1" style="stop-color:#e3e3e3;stop-opacity:1"/></radialGradient><filter id="alpha" width="100%" height="100%" x="0%" y="0%" filterUnits="objectBoundingBox"><feColorMatrix in="SourceGraphic" type="matrix" values="0 0 0 0 1 0 0 0 0 1 0 0 0 0 1 0 0 0 1 0"/></filter><mask id="mask0"><g filter="url(#alpha)"><rect width="16" height="16" x="0" y="0" style="fill:#000;fill-opacity:.490196;stroke:none"/></g></mask><linearGradient id="linear0" x1="63.125" x2="63.125" y1="76.604" y2="106.51" gradientTransform="matrix(0.125,0,0,0.125,0,0)" gradientUnits="userSpaceOnUse"><stop offset="0" style="stop-color:#fff;stop-opacity:1"/><stop offset=".212" style="stop-color:#e2e2e2;stop-opacity:1"/><stop offset=".559" style="stop-color:#b8b8b8;stop-opacity:1"/><stop offset=".832" style="stop-color:#9e9e9e;stop-opacity:1"/><stop offset=".995" style="stop-color:#949494;stop-opacity:1"/></linearGradient><clipPath id="clip1"><rect width="16" height="16"/></clipPath><g id="surface6" clip-path="url(#clip1)"><path style="stroke:none;fill-rule:nonzero;fill:url(#linear0)" d="M 12.4375 11.136719 C 12.4375 12.371094 10.402344 13.5 7.890625 13.5 C 5.378906 13.5 3.34375 12.367188 3.34375 11.136719 C 3.34375 9.90625 5.378906 8.90625 7.890625 8.90625 C 10.402344 8.90625 12.4375 9.90625 12.4375 11.136719 Z M 12.4375 11.136719"/></g><mask id="mask1"><g filter="url(#alpha)"><rect width="16" height="16" x="0" y="0" style="fill:#000;fill-opacity:.2;stroke:none"/></g></mask><clipPath id="clip2"><rect width="16" height="16"/></clipPath><g id="surface12" clip-path="url(#clip2)"><path style="stroke:none;fill-rule:nonzero;fill:#424242;fill-opacity:1" d="M 8 8.03125 C 9.925781 8.03125 11.730469 8.417969 13.078125 9.125 C 14.355469 9.789062 15.054688 10.640625 15.054688 11.53125 C 15.054688 12.421875 14.355469 13.273438 13.078125 13.9375 C 11.730469 14.644531 9.925781 15.03125 8 15.03125 C 6.074219 15.03125 4.269531 14.644531 2.921875 13.9375 C 1.644531 13.273438 0.945312 12.421875 0.945312 11.53125 C 0.945312 10.640625 1.644531 9.789062 2.921875 9.125 C 4.269531 8.417969 6.074219 8.03125 8 8.03125 M 8 7.65625 C 3.894531 7.65625 0.570312 9.390625 0.570312 11.53125 C 0.570312 13.671875 3.894531 15.40625 8 15.40625 C 12.105469 15.40625 15.429688 13.671875 15.429688 11.53125 C 15.429688 9.390625 12.105469 7.65625 8 7.65625 Z M 8 7.65625"/></g><radialGradient id="radial1" cx="62.548" cy="66.739" r="42.384" fx="62.548" fy="66.739" gradientTransform="matrix(0.125,0,0,0.122688,0,0.0790875)" gradientUnits="userSpaceOnUse"><stop offset=".005" style="stop-color:#fff;stop-opacity:1"/><stop offset=".276" style="stop-color:#fbfbfb;stop-opacity:1"/><stop offset=".565" style="stop-color:#eee;stop-opacity:1"/><stop offset=".861" style="stop-color:#d9d9d9;stop-opacity:1"/><stop offset="1" style="stop-color:#ccc;stop-opacity:1"/></radialGradient><linearGradient id="linear1" x1="62.637" x2="62.637" y1="28.365" y2="53.127" gradientTransform="matrix(0.125,0,0,0.125,0,0)" gradientUnits="userSpaceOnUse"><stop offset=".005" style="stop-color:#fff;stop-opacity:1"/><stop offset=".276" style="stop-color:#fbfbfb;stop-opacity:1"/><stop offset=".565" style="stop-color:#eee;stop-opacity:1"/><stop offset=".861" style="stop-color:#d9d9d9;stop-opacity:1"/><stop offset="1" style="stop-color:#ccc;stop-opacity:1"/></linearGradient><mask id="mask2"><g filter="url(#alpha)"><rect width="16" height="16" x="0" y="0" style="fill:#000;fill-opacity:.2;stroke:none"/></g></mask><clipPath id="clip3"><rect width="16" height="16"/></clipPath><g id="surface15" clip-path="url(#clip3)"><path style="stroke:none;fill-rule:nonzero;fill:#424242;fill-opacity:1" d="M 7.808594 4.703125 C 10.386719 4.703125 11.984375 5.519531 12.195312 6.296875 C 12.203125 6.355469 12.214844 6.4375 12.214844 6.464844 C 12.214844 6.496094 12.207031 6.890625 12.199219 7.128906 C 12.195312 7.253906 12.257812 7.371094 12.359375 7.445312 C 12.421875 7.488281 12.5 7.515625 12.578125 7.515625 C 12.621094 7.515625 12.667969 7.503906 12.714844 7.488281 C 12.996094 7.378906 13.359375 7.3125 13.710938 7.3125 C 13.875 7.3125 14.027344 7.328125 14.148438 7.355469 C 14.375 7.40625 14.574219 7.535156 14.683594 7.707031 C 14.785156 7.871094 14.8125 8.070312 14.757812 8.304688 C 14.621094 8.921875 14.003906 10.023438 11.433594 10.476562 C 11.335938 10.496094 11.25 10.546875 11.195312 10.628906 C 10.453125 11.65625 9.3125 12.175781 7.8125 12.175781 C 6.523438 12.175781 5.5 11.796875 4.777344 11.046875 C 3.476562 9.707031 3.40625 7.511719 3.4375 6.628906 L 3.4375 6.609375 C 3.433594 6.429688 3.449219 6.308594 3.453125 6.273438 C 3.695312 5.378906 5.5625 4.703125 7.808594 4.703125 M 7.808594 4.328125 C 5.367188 4.328125 3.363281 5.066406 3.082031 6.199219 C 3.082031 6.199219 3.058594 6.355469 3.0625 6.613281 C 3.015625 7.960938 3.171875 12.554688 7.808594 12.554688 C 9.65625 12.554688 10.796875 11.820312 11.496094 10.847656 C 14.160156 10.378906 14.941406 9.191406 15.121094 8.390625 C 15.304688 7.574219 14.753906 7.105469 14.230469 6.988281 C 14.078125 6.957031 13.898438 6.941406 13.707031 6.941406 C 13.335938 6.941406 12.921875 7.003906 12.574219 7.140625 C 12.582031 6.90625 12.589844 6.503906 12.589844 6.464844 C 12.589844 6.386719 12.5625 6.21875 12.5625 6.21875 C 12.28125 5.085938 10.25 4.328125 7.808594 4.328125 Z M 7.808594 4.328125"/></g><clipPath id="clip4"><path d="M 3 5 L 12 5 L 12 9 L 3 9 Z M 3 5"/></clipPath><clipPath id="clip5"><path d="M 12.488281 6.46875 C 12.488281 7.644531 10.371094 8.507812 7.816406 8.507812 C 5.261719 8.507812 3.121094 7.644531 3.121094 6.46875 C 3.121094 5.292969 5.261719 4.339844 7.816406 4.339844 C 10.371094 4.339844 12.488281 5.292969 12.488281 6.46875 Z M 12.488281 6.46875"/></clipPath><linearGradient id="linear2" x1="62.53" x2="62.53" y1="46.75" y2="74.84" gradientTransform="matrix(0.125,0,0,0.125,0,0)" gradientUnits="userSpaceOnUse"><stop offset="0" style="stop-color:#7b402b;stop-opacity:1"/><stop offset=".094" style="stop-color:#6f3a28;stop-opacity:1"/><stop offset=".504" style="stop-color:#3f241a;stop-opacity:1"/><stop offset=".818" style="stop-color:#211611;stop-opacity:1"/><stop offset=".995" style="stop-color:#16110e;stop-opacity:1"/></linearGradient><mask id="mask3"><g filter="url(#alpha)"><rect width="16" height="16" x="0" y="0" style="fill:#000;fill-opacity:.580392;stroke:none"/></g></mask><clipPath id="clip6"><rect width="16" height="16"/></clipPath><g id="surface18" clip-path="url(#clip6)"><path style="stroke:none;fill-rule:nonzero;fill:#d7ccc8;fill-opacity:1" d="M 6.613281 5.554688 C 6.484375 5.980469 6.890625 6.453125 7.140625 6.679688 C 7.167969 6.703125 7.144531 6.75 7.109375 6.738281 C 6.804688 6.664062 6.265625 6.519531 6.070312 5.921875 C 5.953125 5.558594 6.125 5.167969 6.457031 4.601562 C 6.648438 4.265625 6.742188 3.953125 6.765625 3.582031 C 6.796875 3.203125 6.703125 2.914062 6.539062 2.722656 C 6.511719 2.691406 6.542969 2.648438 6.578125 2.667969 C 6.863281 2.820312 7.1875 3.105469 7.265625 3.566406 C 7.265625 3.566406 7.265625 3.566406 7.269531 3.570312 C 7.351562 4.367188 6.84375 4.785156 6.613281 5.554688 Z M 6.613281 5.554688"/></g><mask id="mask4"><g filter="url(#alpha)"><rect width="16" height="16" x="0" y="0" style="fill:#000;fill-opacity:.580392;stroke:none"/></g></mask><clipPath id="clip7"><rect width="16" height="16"/></clipPath><g id="surface21" clip-path="url(#clip7)"><path style="stroke:none;fill-rule:nonzero;fill:#d7ccc8;fill-opacity:1" d="M 8.261719 5.386719 C 7.957031 6.019531 8.476562 6.859375 8.804688 7.273438 C 8.839844 7.320312 8.796875 7.386719 8.742188 7.363281 C 8.285156 7.171875 7.480469 6.8125 7.324219 5.824219 C 7.230469 5.234375 7.597656 4.664062 8.253906 3.859375 C 8.640625 3.378906 8.863281 2.914062 8.996094 2.34375 C 9.136719 1.753906 9.058594 1.28125 8.851562 0.941406 C 8.820312 0.886719 8.878906 0.828125 8.929688 0.863281 C 9.332031 1.171875 9.769531 1.703125 9.78125 2.441406 L 9.78125 2.449219 C 9.710938 3.714844 8.816406 4.238281 8.261719 5.386719 Z M 8.261719 5.386719"/></g></defs><g id="surface1"><path style="stroke:none;fill-rule:nonzero;fill:url(#radial0)" d="M 15.429688 11.53125 C 15.429688 9.390625 12.101562 7.65625 8 7.65625 C 3.898438 7.65625 0.570312 9.390625 0.570312 11.53125 C 0.570312 13.671875 3.898438 15.40625 8 15.40625 C 12.101562 15.40625 15.429688 13.671875 15.429688 11.53125 Z M 15.429688 11.53125"/><use mask="url(#mask0)" xlink:href="#surface6"/><use mask="url(#mask1)" xlink:href="#surface12"/><path style="stroke:none;fill-rule:nonzero;fill:url(#radial1)" d="M 14.242188 7.019531 C 13.804688 6.921875 13.113281 6.964844 12.585938 7.171875 C 12.605469 6.589844 12.558594 6.207031 12.558594 6.207031 L 7.8125 6.199219 L 3.082031 6.203125 C 3.082031 6.203125 2.390625 12.546875 7.8125 12.546875 C 9.664062 12.546875 10.804688 11.820312 11.507812 10.855469 C 14.175781 10.386719 14.957031 9.210938 15.140625 8.414062 C 15.324219 7.601562 14.765625 7.136719 14.242188 7.019531 Z M 14.304688 8.53125 C 14.238281 8.667969 13.589844 9.550781 12.324219 9.660156 C 12.324219 9.660156 12.773438 7.722656 13.71875 7.703125 C 14.660156 7.683594 14.375 8.394531 14.304688 8.53125 Z M 14.304688 8.53125"/><path style="stroke:none;fill-rule:nonzero;fill:url(#linear1)" d="M 12.589844 6.46875 C 12.589844 7.683594 10.453125 8.667969 7.816406 8.667969 C 5.179688 8.667969 3.066406 7.679688 3.066406 6.464844 C 3.066406 5.25 5.179688 4.269531 7.816406 4.269531 C 10.453125 4.269531 12.589844 5.253906 12.589844 6.46875 Z M 12.589844 6.46875"/><use mask="url(#mask2)" xlink:href="#surface15"/><g clip-path="url(#clip4)" clip-rule="nonzero"><g clip-path="url(#clip5)" clip-rule="nonzero"><path style="stroke:none;fill-rule:nonzero;fill:url(#linear2)" d="M 11.90625 7.613281 C 11.90625 6.570312 10.074219 5.730469 7.816406 5.730469 C 5.558594 5.730469 3.726562 6.570312 3.726562 7.613281 C 3.726562 8.652344 5.558594 9.496094 7.816406 9.496094 C 10.074219 9.496094 11.90625 8.652344 11.90625 7.613281 Z M 11.90625 7.613281"/></g></g><use mask="url(#mask3)" xlink:href="#surface18"/><use mask="url(#mask4)" xlink:href="#surface21"/><path style="stroke:none;fill-rule:nonzero;fill:#fff;fill-opacity:1" d="M 8.007812 14.644531 C 5.351562 14.644531 2.8125 14.1875 1.742188 13.089844 C 2.710938 14.21875 5.148438 15.019531 8.007812 15.019531 C 10.863281 15.019531 13.300781 14.21875 14.269531 13.089844 C 12.832031 14.144531 10.660156 14.644531 8.007812 14.644531 Z M 8.007812 14.644531"/></g></svg>

<svg xmlns="http://www.w3.org/2000/svg" xmlns:xlink="http://www.w3.org/1999/xlink" width="16pt" height="16pt" viewBox="0 0 16 16"><defs><clipPath id="b"><path d="M0 0h16v16H0z"/></clipPath><clipPath id="d"><path d="M0 0h16v16H0z"/></clipPath><clipPath id="e"><path d="M0 0h16v16H0z"/></clipPath><clipPath id="q"><path d="M3 5h9v4H3Zm0 0"/></clipPath><clipPath id="r"><path d="M12.488 6.469c0 1.176-2.117 2.039-4.672 2.039s-4.695-.863-4.695-2.04c0-1.175 2.14-2.128 4.695-2.128s4.672.953 4.672 2.129m0 0"/></clipPath><clipPath id="f"><path d="M0 0h16v16H0z"/></clipPath><clipPath id="g"><path d="M0 0h16v16H0z"/></clipPath><mask id="i"><g filter="url(#a)"><path d="M0 0h16v16H0z" style="fill:#000;fill-opacity:.490196;stroke:none"/></g></mask><mask id="k"><g filter="url(#a)"><path d="M0 0h16v16H0z" style="fill:#000;fill-opacity:.2;stroke:none"/></g></mask><mask id="o"><g filter="url(#a)"><path d="M0 0h16v16H0z" style="fill:#000;fill-opacity:.2;stroke:none"/></g></mask><mask id="t"><g filter="url(#a)"><path d="M0 0h16v16H0z" style="fill:#000;fill-opacity:.580392;stroke:none"/></g></mask><mask id="v"><g filter="url(#a)"><path d="M0 0h16v16H0z" style="fill:#000;fill-opacity:.580392;stroke:none"/></g></mask><g id="j" clip-path="url(#b)"><path d="M12.438 11.137c0 1.234-2.036 2.363-4.547 2.363-2.512 0-4.547-1.133-4.547-2.363s2.035-2.23 4.547-2.23 4.547 1 4.547 2.23m0 0" style="stroke:none;fill-rule:nonzero;fill:url(#c)"/></g><g id="l" clip-path="url(#d)"><path d="M8 8.031c1.926 0 3.73.387 5.078 1.094 1.277.664 1.977 1.516 1.977 2.406s-.7 1.742-1.977 2.406c-1.348.708-3.152 1.094-5.078 1.094s-3.73-.386-5.078-1.094C1.645 13.274.945 12.423.945 11.532c0-.89.7-1.742 1.977-2.406C4.27 8.418 6.074 8.031 8 8.031m0-.375c-4.105 0-7.43 1.735-7.43 3.875S3.895 15.406 8 15.406s7.43-1.734 7.43-3.875S12.105 7.656 8 7.656m0 0" style="stroke:none;fill-rule:nonzero;fill:#424242;fill-opacity:1"/></g><g id="p" clip-path="url(#e)"><path d="M7.809 4.703c2.578 0 4.175.817 4.386 1.594.008.058.02.14.02.168 0 .031-.008.426-.016.664a.38.38 0 0 0 .38.387q.064-.002.136-.028c.281-.11.644-.176.996-.176.164 0 .316.016.437.043.227.051.426.18.536.352.101.164.129.363.074.598-.137.617-.754 1.718-3.324 2.172a.37.37 0 0 0-.239.152c-.742 1.027-1.883 1.547-3.383 1.547-1.289 0-2.312-.38-3.035-1.13-1.3-1.339-1.37-3.534-1.34-4.417v-.02c-.003-.18.012-.3.016-.336.242-.894 2.11-1.57 4.356-1.57m0-.375c-2.442 0-4.446.738-4.727 1.871 0 0-.023.156-.02.414-.046 1.348.11 5.942 4.747 5.942 1.847 0 2.988-.735 3.687-1.707 2.664-.47 3.445-1.657 3.625-2.457.184-.817-.367-1.286-.89-1.403a3.205 3.205 0 0 0-1.656.152c.007-.234.015-.636.015-.675 0-.078-.027-.246-.027-.246-.282-1.133-2.313-1.89-4.754-1.89m0 0" style="stroke:none;fill-rule:nonzero;fill:#424242;fill-opacity:1"/></g><g id="u" clip-path="url(#f)"><path d="M6.613 5.555c-.129.425.278.898.528 1.125.027.023.004.07-.032.058-.304-.074-.843-.218-1.039-.816-.117-.363.055-.754.387-1.32.191-.336.285-.649.309-1.02.03-.379-.063-.668-.227-.86-.027-.03.004-.074.04-.054.284.152.609.437.687.898l.004.004c.082.797-.426 1.215-.657 1.985m0 0" style="stroke:none;fill-rule:nonzero;fill:#d7ccc8;fill-opacity:1"/></g><g id="w" clip-path="url(#g)"><path d="M8.262 5.387c-.305.633.215 1.472.543 1.886.035.047-.008.114-.063.09-.457-.191-1.262-.55-1.418-1.539-.094-.59.274-1.16.93-1.965.387-.48.61-.945.742-1.515.14-.59.063-1.063-.144-1.403-.032-.054.027-.113.078-.078.402.309.84.84.851 1.578v.008c-.07 1.266-.965 1.79-1.52 2.938m0 0" style="stroke:none;fill-rule:nonzero;fill:#d7ccc8;fill-opacity:1"/></g><linearGradient id="c" x1="63.125" x2="63.125" y1="76.604" y2="106.51" gradientTransform="scale(.125)" gradientUnits="userSpaceOnUse"><stop offset="0" style="stop-color:#fff;stop-opacity:1"/><stop offset=".212" style="stop-color:#e2e2e2;stop-opacity:1"/><stop offset=".559" style="stop-color:#b8b8b8;stop-opacity:1"/><stop offset=".832" style="stop-color:#9e9e9e;stop-opacity:1"/><stop offset=".995" style="stop-color:#949494;stop-opacity:1"/></linearGradient><linearGradient id="n" x1="62.637" x2="62.637" y1="28.365" y2="53.127" gradientTransform="scale(.125)" gradientUnits="userSpaceOnUse"><stop offset=".005" style="stop-color:#fff;stop-opacity:1"/><stop offset=".276" style="stop-color:#fbfbfb;stop-opacity:1"/><stop offset=".565" style="stop-color:#eee;stop-opacity:1"/><stop offset=".861" style="stop-color:#d9d9d9;stop-opacity:1"/><stop offset="1" style="stop-color:#ccc;stop-opacity:1"/></linearGradient><linearGradient id="s" x1="62.53" x2="62.53" y1="46.75" y2="74.84" gradientTransform="scale(.125)" gradientUnits="userSpaceOnUse"><stop offset="0" style="stop-color:#7b402b;stop-opacity:1"/><stop offset=".094" style="stop-color:#6f3a28;stop-opacity:1"/><stop offset=".504" style="stop-color:#3f241a;stop-opacity:1"/><stop offset=".818" style="stop-color:#211611;stop-opacity:1"/><stop offset=".995" style="stop-color:#16110e;stop-opacity:1"/></linearGradient><radialGradient id="h" cx="63.138" cy="96.922" r="57.66" fx="63.138" fy="96.922" gradientTransform="matrix(.12682 0 0 .06699 -.007 5.039)" gradientUnits="userSpaceOnUse"><stop offset="0" style="stop-color:#fff;stop-opacity:1"/><stop offset="1" style="stop-color:#e3e3e3;stop-opacity:1"/></radialGradient><radialGradient id="m" cx="62.548" cy="66.739" r="42.384" fx="62.548" fy="66.739" gradientTransform="matrix(.125 0 0 .12269 0 .08)" gradientUnits="userSpaceOnUse"><stop offset=".005" style="stop-color:#fff;stop-opacity:1"/><stop offset=".276" style="stop-color:#fbfbfb;stop-opacity:1"/><stop offset=".565" style="stop-color:#eee;stop-opacity:1"/><stop offset=".861" style="stop-color:#d9d9d9;stop-opacity:1"/><stop offset="1" style="stop-color:#ccc;stop-opacity:1"/></radialGradient><filter id="a" width="100%" height="100%" x="0%" y="0%" filterUnits="objectBoundingBox"><feColorMatrix in="SourceGraphic" values="0 0 0 0 1 0 0 0 0 1 0 0 0 0 1 0 0 0 1 0"/></filter></defs><path d="M15.43 11.531c0-2.14-3.328-3.875-7.43-3.875S.57 9.391.57 11.531 3.898 15.406 8 15.406s7.43-1.734 7.43-3.875m0 0" style="stroke:none;fill-rule:nonzero;fill:url(#h)"/><use xlink:href="#j" mask="url(#i)"/><use xlink:href="#l" mask="url(#k)"/><path d="M14.242 7.02c-.437-.098-1.129-.055-1.656.152.02-.582-.027-.965-.027-.965l-4.746-.008-4.731.004s-.691 6.344 4.73 6.344c1.852 0 2.993-.727 3.696-1.692 2.668-.468 3.449-1.644 3.633-2.44.183-.813-.375-1.278-.899-1.395m.063 1.511c-.067.137-.715 1.02-1.98 1.13 0 0 .448-1.938 1.394-1.958.941-.02.656.692.586.828m0 0" style="stroke:none;fill-rule:nonzero;fill:url(#m)"/><path d="M12.59 6.469c0 1.215-2.137 2.199-4.774 2.199s-4.75-.988-4.75-2.203S5.18 4.27 7.816 4.27s4.774.984 4.774 2.199m0 0" style="stroke:none;fill-rule:nonzero;fill:url(#n)"/><use xlink:href="#p" mask="url(#o)"/><g clip-path="url(#q)"><g clip-path="url(#r)"><path d="M11.906 7.613c0-1.043-1.832-1.883-4.09-1.883s-4.09.84-4.09 1.883c0 1.04 1.833 1.883 4.09 1.883 2.258 0 4.09-.844 4.09-1.883m0 0" style="stroke:none;fill-rule:nonzero;fill:url(#s)"/></g></g><use xlink:href="#u" mask="url(#t)"/><use xlink:href="#w" mask="url(#v)"/><path d="M8.008 14.645c-2.656 0-5.195-.457-6.266-1.555.969 1.129 3.406 1.93 6.266 1.93 2.855 0 5.293-.801 6.262-1.93-1.438 1.055-3.61 1.555-6.262 1.555m0 0" style="stroke:none;fill-rule:nonzero;fill:#fff;fill-opacity:1"/></svg>
